docs/icons/dribbble.svg

<svg width="100" height="100" viewBox="0 0 100 100" fill="none" xmlns="http://www.w3.org/2000/svg">
<g clip-path="url(#clip0_12_90)">
<path fill-rule="evenodd" clip-rule="evenodd" d="M50.5 82.001C32.5788 82.001 17.9989 67.4212 17.9989 49.5C17.9989 31.5788 32.5788 16.999 50.5 16.999C68.4212 16.999 83.001 31.5788 83.001 49.5C83.001 67.4212 68.4212 82.001 50.5 82.001ZM77.9097 53.9489C76.96 53.6493 69.317 51.3697 60.6176 52.7622C64.249 62.7402 65.7267 70.8667 66.0111 72.5557C72.2389 68.3444 76.6726 61.6733 77.9097 53.9489ZM61.3438 75.0968C60.9309 72.6613 59.3191 64.1732 55.4217 54.0449C55.3607 54.0657 55.2998 54.0855 55.2389 54.1069C39.5805 59.5628 33.9595 70.4219 33.4598 71.4431C38.1672 75.1135 44.0822 77.3032 50.5 77.3032C54.3456 77.3032 58.011 76.5166 61.3438 75.0968ZM29.8757 68.1042C30.5043 67.0276 38.1236 54.4126 52.4408 49.7849C52.8029 49.6681 53.1675 49.5579 53.5347 49.4543C52.8379 47.8775 52.0788 46.2987 51.284 44.7433C37.4207 48.8921 23.9678 48.719 22.7531 48.6941C22.7445 48.9759 22.7389 49.2583 22.7389 49.5421C22.7389 56.6723 25.442 63.1825 29.8757 68.1042ZM23.3254 43.8567C24.567 43.8729 36.0045 43.9227 48.9902 40.4741C44.39 32.2973 39.4291 25.4226 38.6974 24.4191C30.9309 28.0825 25.1256 35.2421 23.3254 43.8567ZM43.9944 22.5529C44.7617 23.5807 49.8038 30.4469 54.3527 38.8044C64.2241 35.1045 68.4034 29.4876 68.9026 28.7767C64.0002 24.4272 57.5535 21.7815 50.5 21.7815C48.26 21.7815 46.082 22.0497 43.9944 22.5529ZM71.9886 31.9871C71.4036 32.7787 66.7515 38.742 56.4871 42.9329C57.133 44.2553 57.7525 45.6 58.3289 46.9538C58.5336 47.4337 58.7321 47.911 58.9271 48.3863C68.1642 47.225 77.3424 49.0866 78.2575 49.2801C78.1966 42.7278 75.855 36.7107 71.9886 31.9871Z" fill="white"/>
</g>
<defs>
<clipPath id="clip0_12_90">
<rect width="65" height="65" fill="white" transform="translate(18 17)"/>
</clipPath>
</defs>
</svg>

<svg xmlns="http://www.w3.org/2000/svg" width="100" height="100" fill="none" xmlns:v="https://vecta.io/nano"><g clip-path="url(#A)"><path fill-rule="evenodd" d="M50.5 82.001c-17.921 0-32.501-14.58-32.501-32.501S32.579 16.999 50.5 16.999 83.001 31.579 83.001 49.5 68.421 82.001 50.5 82.001zm27.41-28.052c-.95-.3-8.593-2.579-17.292-1.187 3.631 9.978 5.109 18.104 5.393 19.794 6.228-4.211 10.662-10.882 11.899-18.607zM61.344 75.097c-.413-2.436-2.025-10.924-5.922-21.052l-.183.062C39.581 59.563 33.96 70.422 33.46 71.443c4.707 3.67 10.622 5.86 17.04 5.86 3.846 0 7.511-.787 10.844-2.206zm-31.468-6.993c.629-1.077 8.248-13.692 22.565-18.319a30.85 30.85 0 0 1 1.094-.331c-.697-1.577-1.456-3.156-2.251-4.711-13.863 4.149-27.316 3.976-28.531 3.951l-.014.848a27.65 27.65 0 0 0 7.137 18.562zm-6.55-24.248c1.242.016 12.679.066 25.665-3.383a177.2 177.2 0 0 0-10.293-16.055c-7.767 3.663-13.572 10.823-15.372 19.438zm20.669-21.304a148.25 148.25 0 0 1 10.358 16.252c9.871-3.7 14.051-9.317 14.55-10.028C64 24.427 57.554 21.782 50.5 21.782a27.73 27.73 0 0 0-6.506.771zm27.994 9.434c-.585.792-5.237 6.755-15.502 10.946.646 1.322 1.265 2.667 1.842 4.021l.598 1.432c9.237-1.161 18.415.7 19.33.894-.061-6.552-2.402-12.569-6.269-17.293z" fill="#fff"/></g><defs><clipPath id="A"><path fill="#fff" transform="translate(18 17)" d="M0 0h65v65H0z"/></clipPath></defs></svg>
